icons/play.svg

<svg width="24" height="24" viewBox="0 0 24 24" fill="none" xmlns="http://www.w3.org/2000/svg">
<path d="M14.9308 8.88815L14.9278 8.88573C14.4391 8.48307 13.9364 8.09783 13.4205 7.73074C13.0052 7.43908 12.535 7.13809 12.0485 6.84176L12.0468 6.8407C10.1708 5.70042 9.23313 5.13048 8.39224 5.76144C7.55117 6.39283 7.47432 7.71281 7.32078 10.3497L7.32009 10.3615C7.27692 11.1094 7.25009 11.8432 7.25009 12.5C7.254 13.2133 7.27773 13.9264 7.32126 14.6385L7.32155 14.6435C7.47419 17.2861 7.55046 18.6066 8.39224 19.2386C9.23313 19.8695 10.1708 19.2996 12.0468 18.1593L12.0485 18.1582C12.535 17.8619 13.0052 17.5609 13.4205 17.2693C13.9364 16.9022 14.4391 16.5169 14.9278 16.1143C16.8096 14.5801 17.7499 13.8125 17.7499 12.5C17.7499 11.1882 16.8106 10.4218 14.9308 8.88815Z" stroke="black" stroke-width="2" stroke-linecap="round" stroke-linejoin="round"/>
</svg>

<svg xmlns="http://www.w3.org/2000/svg" width="24" height="24" viewBox="0 0 24 24" fill="none" stroke="currentColor" stroke-width="2" stroke-linecap="round" stroke-linejoin="round">
<path d="m14.93 8.888-.002-.002A27 27 0 0 0 13.42 7.73a26 26 0 0 0-1.371-.89h-.002C10.17 5.7 9.233 5.13 8.392 5.76c-.84.632-.918 1.952-1.071 4.589v.011a38 38 0 0 0-.07 2.139q.005 1.07.07 2.139v.005c.153 2.642.23 3.963 1.071 4.595.841.63 1.779.06 3.655-1.08h.002c.486-.297.956-.598 1.372-.89a27 27 0 0 0 1.507-1.155c1.882-1.534 2.822-2.302 2.822-3.614s-.94-2.078-2.82-3.612"/>
</svg>
